X: 9
T:Tho. Marsden's Hornpipe
M:3/2
L:1/4
S:Marsden
N:G Dorian is probably a better KS>
Z:ps
K:GMin
BfA/B/ c/A/Gf|FffF A/B/ c/A/|BfA/B/ c/A/Gf|e/f/g/a/gGA/B/ c/A/||
ag/f/ e/f/g/e/dg|cffFA/B/ c/A/|ag/f/e/f/ g/e/df|egdf e/f/g/e/||
fagf/e/fe/d/|cd/e/fFA/B/ c/A/|BdA/B/ c/A/Gf|e/f/g/a/gGA/B/ c/A/||
BdAcGB|FBFBA/B/ c/A/|BdAcGf|e/f/g/a/gGA/B/ c/A/||
Bdc3/2B/4A/4Gf|e3/2d/4e/4fFA/B/ c/A/|BdA/B/ c/A/GE|GggGA/B/ c/A/||
a/z/g/z/f/z/e/z/d/z/f/z/|cffFA/B/ c/A/|a/z/g/z/f/z/e/z/d/z/f/z/|e/z/f/z/
dfe/f/g/e/||
ag/f/ e/f/g/e/fe/d/|cd/e/fFA/B/ c/A/|Bdd/c/B/A/Gf|e/f/g/a/gGA/B/ c/A/||
